svg/Account/person-off-twotone-loop.svg

<svg xmlns="http://www.w3.org/2000/svg" width="24" height="24" viewBox="0 0 24 24">
	<mask id="person-mask">
		<g fill="white" fill-opacity="0" stroke="white" stroke-width="2" stroke-linecap="round" stroke-linejoin="round">
			<path d="M12 5C13.66 5 15 6.34 15 8C15 9.65685 13.6569 11 12 11C10.3431 11 9 9.65685 9 8C9 6.34315 10.3431 5 12 5z" stroke-dasharray="20" stroke-dashoffset="20">
				<animate attributeName="stroke-dashoffset" values="20;0" dur="0.4s" fill="freeze" />
			</path>
			<path d="M12 14C16 14 19 16 19 17V19H5V17C5 16 8 14 12 14z" opacity="0" stroke-dasharray="36" stroke-dashoffset="36">
				<set attributeName="opacity" to="1" begin="0.5s" />
				<animate attributeName="stroke-dashoffset" values="36;0" begin="0.5s" dur="0.4s" fill="freeze" />
			</path>
			<animate attributeName="fill-opacity" values="0;0.3" begin="0.9s" dur="0.15s" fill="freeze" />
		</g>
		<g transform="rotate(45 12 12)" fill="none" stroke-width="2" stroke-linecap="round" stroke-dasharray="26" stroke-dashoffset="26">
			<path d="M0 11h24" stroke="black" />
			<path d="M0 13h22" stroke="white">
				<animate attributeName="d" values="M0 13h22;M2 13h22;M0 13h22" dur="6s" repeatCount="indefinite" />
			</path>
			<animate attributeName="stroke-dashoffset" values="26;0" begin="1.1s" dur="0.2s" fill="freeze" />
		</g>
	</mask>
	<rect mask="url(#person-mask)" width="24" height="24" fill="currentColor" />
</svg>

<svg xmlns="http://www.w3.org/2000/svg" width="24" height="24" viewBox="0 0 24 24">
	<mask id="person-off-mask">
		<g fill="#fff" stroke="#fff" stroke-width="2" stroke-linecap="round" stroke-linejoin="round" fill-opacity="0">
			<path d="M12 5c1.66 0 3 1.34 3 3c0 1.66 -1.34 3 -3 3c-1.66 0 -3 -1.34 -3 -3c0 -1.66 1.34 -3 3 -3Z" stroke-dasharray="20" stroke-dashoffset="20">
				<animate attributeName="stroke-dashoffset" values="20;0" dur="0.4s" fill="freeze" />
			</path>
			<path d="M12 14c4 0 7 2 7 3v2h-14v-2c0 -1 3 -3 7 -3Z" stroke-dasharray="40" stroke-dashoffset="40">
				<animate attributeName="stroke-dashoffset" values="40;0" begin="0.5s" dur="0.5s" fill="freeze" />
			</path>
			<g transform="rotate(45 12 12)" fill="none" stroke-dasharray="32" stroke-dashoffset="32">
				<path d="M0 11h24" stroke="#000" />
				<path d="M0 13h22">
					<animate attributeName="d" values="M0 13h22;M2 13h22;M0 13h22" dur="6s" keyTimes="0;0.5;1" repeatCount="indefinite" />
				</path>
				<animate attributeName="stroke-dashoffset" values="32;0" begin="1.35s" dur="0.4s" fill="freeze" />
			</g>
			<animate attributeName="fill-opacity" values="0;0.3" begin="1.1s" dur="0.15s" fill="freeze" />
		</g>
	</mask>
	<rect mask="url(#person-off-mask)" width="24" height="24" fill="currentColor" />
</svg>
